!!!!SEGMENT: Gsc2005-Osculetur_me
!!!id: Gsc2005
!!!AGN: Motet
!!!voices: 4
!!!COM: Mathieu Gascongne
!!!OTL: Osculetur me
**kern	**kern	**kern	**kern
*part4	*part3	*part2	*part1
*staff4	*staff3	*staff2	*staff1
*I"Bassus	*I"Tenor	*I"Altus	*I"Superius
*I'B.	*I'T.	*I'A.	*I'S.
*clefF4	*clefGv2	*clefG2	*clefG2
*k[b-]	*k[b-]	*k[b-]	*k[b-]
*F:	*F:	*F:	*F:
*M2/1	*M2/1	*M2/1	*M2/1
*met(C|)	*met(C|)	*met(C|)	*met(C|)
!!Section: Prima pars: Osculetur me
!!!OMD: Prima pars: Osculetur me
=1	=1	=1	=1
0r	0r	1f	0r
.	.	2f	.
.	.	2f	.
=2	=2	=2	=2
0r	0r	1g	0r
.	.	[1f	.
=3	=3	=3	=3
0r	0r	2f]	1cc
.	.	4e	.
.	.	4d	.
.	.	1c	2cc
.	.	.	2cc
=4	=4	=4	=4
0r	0r	1.f	1dd
.	.	.	[1cc
.	.	2f	.
=5	=5	=5	=5
0r	0r	1f	2cc]
.	.	.	4b-y
.	.	.	4a
.	.	1b-y	1g
=6	=6	=6	=6
0r	0r	2.a	1.cc
.	.	4g	.
.	.	4f	.
.	.	4e	.
.	.	[2f	2cc
=7	=7	=7	=7
0r	0r	2f]	1cc
.	.	2e	.
.	.	1d	1ff
=8	=8	=8	=8
0r	0r	1c	2.ee
.	.	.	4dd
.	.	2.f	4cc
.	.	.	4b-y
.	.	.	[2cc
.	.	4e	.
=9	=9	=9	=9
1F	0r	4d	2cc]
.	.	4c	.
.	.	2d	2b-y
2F	.	2c	1a
2F	.	2f	.
=10	=10	=10	=10
1G	0r	2e	2g
.	.	1d	1b-y
[1F	.	.	.
.	.	4c	2a
.	.	4B-y	.
=11	=11	=11	=11
2F]	1c	2A	2a
4E	.	1f	2f
4D	.	.	.
1C	2c	.	2g
.	2c	2e	[2a
=12	=12	=12	=12
1.F	1d	0f	2a]
.	.	.	4g
.	.	.	4f
.	[1c	.	1cc
2F	.	.	.
=13	=13	=13	=13
1F	2c]	2r	1a
.	4B-y	2c	.
.	4A	.	.
1B-y	1G	3.d	1r
.	.	6c	.
.	.	3d	.
=14	=14	=14	=14
2.A	1.c	1e	0r
4G	.	.	.
4F	.	2.A	.
4E	.	.	.
[2F	2c	.	.
.	.	4G	.
=15	=15	=15	=15
2F]	1c	4A	0r
.	.	4B-y	.
2E	.	1c	.
1D	1f	.	.
.	.	2BnXi	.
=16	=16	=16	=16
0C	2.e	1c	2r
.	.	.	1g
.	4d	.	.
.	4c	2.e	.
.	4B-y	.	.
.	[2c	.	2g
.	.	4d	.
=17	=17	=17	=17
0r	2c]	4e	2a
.	.	4f	.
.	2B-y	1g	2g
.	1A	.	1cc
.	.	2f#i	.
=18	=18	=18	=18
0r	1G	1g	1b-y
.	1r	2r	1g
.	.	[2c	.
=19	=19	=19	=19
2r	0r	2c]	1.a
1F	.	2c	.
.	.	4d	.
.	.	4c	.
2F	.	2f	2a
=20	=20	=20	=20
2G	0r	2e	2b-y
2F	.	1f	1a
1B-y	.	.	.
.	.	2d	2g
=21	=21	=21	=21
1A	2r	1e	2.a
.	1c	.	.
.	.	.	4b-y
1F	.	2r	4cc
.	.	.	4f
.	2c	2a	[2ff
=22	=22	=22	=22
2r	2d	2f	4ff]
.	.	.	4ee
1A	2c	1cc	1ee
.	1f	.	.
2B-y	.	2b-y	2dd
=23	=23	=23	=23
1c	1e	2a	2ee
.	.	1g	1cc
1A	1c	.	.
.	.	2f#i	4b-y
.	.	.	4a
=24	=24	=24	=24
1G	1.d	1g	2.b-y
.	.	.	4g
2F	.	1r	2a
[2G	2d	.	2b-y
=25	=25	=25	=25
2G]	2.d	1r	1g
4F	.	.	.
4E	4e	.	.
2D	4f	2r	1r
.	4d	.	.
[2G	2e	2G	.
=26	=26	=26	=26
2G]	4d	2B-y	0r
.	4c	.	.
4F	1c	2c	.
4E	.	.	.
1D	.	2.d	.
.	2BnXi	.	.
.	.	8cL	.
.	.	8dJ	.
=27	=27	=27	=27
1C	2c	1e	0r
.	2G	.	.
1G	2.B-y	2.d	.
.	4c	4e	.
=28	=28	=28	=28
1r	2.d	2.f	0r
.	8cL	8eL	.
.	8dJ	8fJ	.
2r	1e	[1g	.
2G	.	.	.
=29	=29	=29	=29
2.B-y	2d	0g_	0r
.	2.G	.	.
4c	.	.	.
2d	.	.	.
.	4A	.	.
4c	4B-y	.	.
4d	4G	.	.
=30	=30	=30	=30
1e	1c	1g]	2r
.	.	.	2g
2d	1G	1r	2.b-y
[2G	.	.	.
.	.	.	4cc
=31	=31	=31	=31
4G]	0r	2r	2.dd
4A	.	.	.
4B-y	.	2g	.
4G	.	.	8ccL
.	.	.	8ddJ
1c	.	2g	1ee
.	.	2g	.
=32	=32	=32	=32
2B-y	1r	2.g	2.dd
2.d	.	.	.
.	.	8fL	4ee
.	.	8eJ	.
.	2r	1d	2ff
4c	.	.	.
4B-y	2g	.	2dd
4A	.	.	.
=33	=33	=33	=33
2.G	2g	2.B-y	2ee
.	2g	.	2.dd
4A	.	4c	.
2B-y	2f	2d	.
.	.	.	4cc
2G	2g	[2e	4b-y
.	.	.	4a
=34	=34	=34	=34
2c	2e	2e]	2g
4B-y	4d	2f	1cc
4A	4c	.	.
1G	1d	[1g	.
.	.	.	2bnXi
=35	=35	=35	=35
0C	2c	2g]	[0cc
.	2g	2e	.
.	2g	[1e	.
.	2g	.	.
=36	=36	=36	=36
2r	1g	1e]	0cc]
2c	.	.	.
2c	1a	1r	.
2c	.	.	.
=37	=37	=37	=37
1c	1g	2r	0r
.	.	2g	.
1d	1G	2g	.
.	.	2g	.
=38	=38	=38	=38
1.c	0r	1g	0r
.	.	1a	.
2A	.	.	.
=39	=39	=39	=39
1B-y	0r	1.g	0r
1c	.	.	.
.	.	2e	.
=40	=40	=40	=40
1F	0r	1f	2r
.	.	.	2cc
[1c	.	2.g	2cc
.	.	.	2cc
.	.	4f	.
=41	=41	=41	=41
2c]	2r	4e	1cc
.	.	4d	.
4B-y	2g	1c	.
4A	.	.	.
1G	2g	.	1dd
.	2g	2BnXi	.
=42	=42	=42	=42
1C	1g	2.c	1.cc
.	.	4B-y	.
1r	1a	2c	.
.	.	2d	2a
=43	=43	=43	=43
0r	1.g	2B-y	1b-y
.	.	1e-i	.
.	.	.	2.cc
.	2e	4d	.
.	.	4c	4b-y
=44	=44	=44	=44
1r	1f	1d	4a
.	.	.	4g
.	.	.	1f
2r	1g	1c	.
2C	.	.	2e
=45	=45	=45	=45
1F	2c	2r	1f
.	1f	2c	.
1G	.	1g	1r
.	2e	.	.
=46	=46	=46	=46
2F	1f	1a	2r
2A	.	.	2cc
2B-y	1r	2.g	2dd
[2c	.	.	[2ee
.	.	4f	.
=47	=47	=47	=47
2c]	0r	4e	2ee]
.	.	4d	.
2A	.	2e	2cc
2B-y	.	4d	2dd
.	.	4c	.
2A	.	[2f	2cc
=48	=48	=48	=48
2B-y	0r	2f]	2dd
2c	.	2e	2ee
1F	.	2f	[1cc
.	.	2f	.
=49	=49	=49	=49
2E	0r	2g	0cc_
1F	.	1a	.
4E	.	2f	.
4D	.	.	.
=50	=50	=50	=50
2C	1r	2.g	1cc]
2c	.	.	.
.	.	4f	.
2c	2r	2g	1r
4B-y	2c	2a	.
4A	.	.	.
=51	=51	=51	=51
2B-y	2d	2f	0r
2.c	1e	2a	.
.	.	2g	.
4B-y	.	.	.
4A	2c	[2a	.
4G	.	.	.
=52	=52	=52	=52
1F	2d	4a]	2r
.	.	4g	.
.	2c	4f	2a
.	.	4e	.
2r	2d	2f	2a
2C	2e	2g	[2cc
=53	=53	=53	=53
2.F	1c	2a	4cc]
.	.	.	4b-y
.	.	4g	1a
4G	.	4f	.
4A	2r	1e	.
4B-y	.	.	.
[2c	2A	.	4g
.	.	.	4f
=54	=54	=54	=54
4c]	2c	2r	1e
4B-y	.	.	.
1A	2c	2e	.
.	1B-y	2e	1r
2G	.	2g	.
=55	=55	=55	=55
1A	0A	4f	2r
.	.	4e	.
.	.	1e	2e
2.F	.	.	2a
.	.	2d	2a
4E	.	.	.
=56	=56	=56	=56
[0C	0c	0e	1g
.	.	.	2e
.	.	.	2g
=57	=57	=57	=57
0C]	1r	0r	2g
.	.	.	2.a
.	1c	.	.
.	.	.	4g
.	.	.	4f
.	.	.	4e
=58	=58	=58	=58
0r	2B-y	2r	1f
.	2A	2f	.
.	1c	2g	1e
.	.	[2a	.
=59	=59	=59	=59
1c	1F	4a]	1r
.	.	4g	.
.	.	4f	.
.	.	4e	.
2B-y	1r	1f	2r
2A	.	.	2f
=60	=60	=60	=60
1c	1r	1e	2g
.	.	.	2.a
1F	2r	1a	.
.	.	.	4g
.	2c	.	4f
.	.	.	4e
=61	=61	=61	=61
2r	2d	1.a	1f
2A	2.c	.	.
[1c	.	.	2e
.	4d	.	.
.	4e	4g	2cc
.	4f	4f	.
=62	=62	=62	=62
2c]	2g	1e	2.cc
2c	2a	.	.
.	.	.	4dd
2c	2g	2r	2ee
[2d	2f	2a	[2ff
=63	=63	=63	=63
2d]	1d	2.a	4ff]
.	.	.	4ee
4c	.	.	2.dd
4B-y	.	4g	.
1A	1e	4a	.
.	.	4b-y	4cc
.	.	[2cc	4cc
.	.	.	8b-yL
.	.	.	8ccJ
=64	=64	=64	=64
1G	2r	2cc]	1dd
.	2d	2bnXi	.
1c	4e	1cc	2.g
.	4d	.	.
.	[2g	.	.
.	.	.	4a
=65	=65	=65	=65
2B-y	2g]	0r	2b-y
2A	2f	.	2cc
2G	2g	.	2b-y
[2B-y	4f	.	[2dd
.	4e	.	.
=66	=66	=66	=66
4B-]	2d	0r	4dd]
4A	.	.	4cc
4G	1f	.	4b-y
4F	.	.	4a
1G	.	.	1b-y
.	2e	.	.
=67	=67	=67	=67
0F	0f	1r	2a
.	.	.	1cc
.	.	2r	.
.	.	[2f	4b-y
.	.	.	4a
=68	=68	=68	=68
2r	1r	2f]	1g
1c	.	2e	.
.	1g	1d	2r
2B-y	.	.	2b-y
=69	=69	=69	=69
2A	2f	2c	2cc
4G	2e	1g	2cc
4F	.	.	.
2G	2d	.	2b-y
2F	[2f	[2a	[2dd
=70	=70	=70	=70
1A	4f]	2a]	4dd]
.	4e	.	4cc
.	4d	4g	1cc
.	4c	4f	.
1G	1d	1g	.
.	.	.	2bnXi
=71	=71	=71	=71
0Cl	0cl	0gl	0ccl
=72||	=72||	=72||	=72||
*M2/1	*M2/1	*M2/1	*M2/1
*met(C|)	*met(C|)	*met(C|)	*met(C|)
!!Section: Secunda pars: Nigra sum
!!!OMD: Secunda pars: Nigra sum
1.F	0r	0r	0r
2F	.	.	.
=73	=73	=73	=73
1A	0r	0r	1.cc
1c	.	.	.
.	.	.	2cc
=74	=74	=74	=74
1.B-y	0r	1r	1dd
.	.	[1f	2.ff
4A	.	.	.
4G	.	.	4ee
=75	=75	=75	=75
2B-y	1r	2f]	2dd
2A	.	2f	2cc
1F	[1c	1a	1ff
=76	=76	=76	=76
1A	2c]	1cc	1ee
.	2c	.	.
[1B-y	1d	[1b-y	2r
.	.	.	[2dd
=77	=77	=77	=77
1B-]	1.f	2b-]	4dd]
.	.	.	4cc
.	.	4a	4dd
.	.	4g	4ee
1B-y	.	2.f	4ff
.	.	.	4dd
.	2d	.	[2ff
.	.	4g	.
=78	=78	=78	=78
0A	1f	1a	4ff]
.	.	.	4ee
.	.	.	1dd
.	1e	2.a	.
.	.	.	2cc#i
.	.	4a	.
=79	=79	=79	=79
2.D	1r	2a	0dd
.	.	2b-y	.
4E	.	.	.
4F	[1d	2a	.
4E	.	.	.
[2G	.	2g	.
=80	=80	=80	=80
2G]	2d]	1a	0r
2F#i	2d	.	.
1G	2d	1g	.
.	[2e	.	.
=81	=81	=81	=81
2E	4e]	0r	0r
.	4d	.	.
2F	1c	.	.
1D	.	.	.
.	2BnXi	.	.
=82	=82	=82	=82
1C	1c	2r	1r
.	.	2.G	.
2r	1G	.	[1dd
.	.	4A	.
[2G	.	4B-y	.
.	.	4c	.
=83	=83	=83	=83
4G]	1r	4d	2dd]
4A	.	4G	.
4B-y	.	2g	2dd
4c	.	.	.
2d	2r	2f	1dd
[2B-y	[2G	2g	.
=84	=84	=84	=84
4B-]	4G]	2r	1r
4c	4A	.	.
2d	4B-y	2.G	.
.	4c	.	.
2.G	4d	.	[1dd
.	4G	4A	.
.	[2g	4B-y	.
4A	.	4c	.
=85	=85	=85	=85
4B-y	2g]	1.d	2dd]
4c	.	.	.
2d	2f	.	2dd
2B-y	1g	.	2dd
[2c	.	2c	[2ee
=86	=86	=86	=86
2c]	2e	2g	4ee]
.	.	.	4dd
2F	2f	2a	1cc
1G	1d	1g	.
.	.	.	2bnXi
=87	=87	=87	=87
2r	1c	0e	1.cc
2C	.	.	.
2C	2r	.	.
2C	2c	.	4b-y
.	.	.	4a
=88	=88	=88	=88
1F	2c	0r	0a
.	2c	.	.
2r	1f	.	.
2F	.	.	.
=89	=89	=89	=89
2F	1a	0r	0r
2F	.	.	.
1B-y	2g	.	.
.	[2f	.	.
=90	=90	=90	=90
1d	2f]	0r	0r
.	4e	.	.
.	4d	.	.
2c	2e	.	.
[2B-y	2f	.	.
=91	=91	=91	=91
2B-]	2.d	0r	0r
4A	.	.	.
4G	4e	.	.
2A	2f	.	.
2B-y	[2g	.	.
=92	=92	=92	=92
2.G	2g]	0r	0r
.	4f	.	.
4A	4e	.	.
2B-y	2d	.	.
2c	[2e	.	.
=93	=93	=93	=93
2A	4e]	2r	0r
.	4c	.	.
4G	1f	2f	.
4F	.	.	.
1G	.	2b-y	.
.	2e	2b-y	.
=94	=94	=94	=94
0F	0f	2a	2r
.	.	2f	2cc
.	.	1a	2ff
.	.	.	2ff
=95	=95	=95	=95
0r	0r	2g	2ee
.	.	1f	2cc
.	.	.	[1dd
.	.	4e	.
.	.	4d	.
=96	=96	=96	=96
0r	0r	4f	2dd]
.	.	4g	.
.	.	1a	2cc
.	.	.	1b-y
.	.	2g	.
=97	=97	=97	=97
0r	2r	2.a	1a
.	2d	.	.
.	.	4d	.
.	2f	1d	2r
.	2f	.	2a
=98	=98	=98	=98
2r	2e	1r	2cc
2F	2c	.	2cc
2B-y	[1d	2r	2b-y
2B-y	.	2d	2g
=99	=99	=99	=99
2A	2d]	2f	1a
2F	2c	2f	.
[1G	2B-y	2e	2.g
.	4A	[2d	.
.	4G	.	4f
=100	=100	=100	=100
2G]	4B-y	4d]	2e
.	4c	4c	.
2F	1d	2A	2d
1E	.	2B-y	1g
.	2c#i	2G	.
=101	=101	=101	=101
0D	0d	1B-y	1f
.	.	[1A	[1a
=102	=102	=102	=102
1r	1.f	1A]	2a]
.	.	.	2a
[1A	.	1r	2.a
.	2f	.	.
.	.	.	4b-y
=103	=103	=103	=103
2A]	1f	1.a	4cc
.	.	.	4a
2A	.	.	1dd
1A	1e	.	.
.	.	2a	2cc#i
=104	=104	=104	=104
1B-y	2d	2.f	1dd
.	2.f	.	.
.	.	4g	.
1A	.	1a	2r
.	4e	.	.
.	2c	.	2ee
=105	=105	=105	=105
2r	2d	2f	1ff
1F	1c	1a	.
.	.	.	2dd
2G	2B-y	4g	[2ee
.	.	4f	.
=106	=106	=106	=106
2.A	2c	2e	2ee]
.	2.e	2.a	4dd
4B-y	.	.	4cc
2c	.	.	2ee
.	4f	4g	.
2G	4g	2b-y	[2dd
.	4e	.	.
=107	=107	=107	=107
1A	2f	2a	4dd]
.	.	.	4cc
.	2c	2f	1cc
1G	1d	[1g	.
.	.	.	2bnXi
=108	=108	=108	=108
1C	1c	1g]	0cc
2r	1c	1r	.
2C	.	.	.
=109	=109	=109	=109
2F	2c	2r	0r
2E	2c	2e	.
1D	1d	2f	.
.	.	2f	.
=110	=110	=110	=110
1C	1e	1g	1r
1r	2r	1a	1cc
.	2c	.	.
=111	=111	=111	=111
0r	2f	2r	2cc
.	2e	2g	2cc
.	1d	2g	1dd
.	.	2f	.
=112	=112	=112	=112
0r	0c	2g	1ee
.	.	2g	.
.	.	2e	2r
.	.	[2a	2cc
=113	=113	=113	=113
0r	2r	2a]	2ff
.	2c	2g	2ee
.	2c	1f	1dd
.	2B-y	.	.
=114	=114	=114	=114
2r	2c	1e	1cc
2c	2c	.	.
2c	2A	1r	1r
2B-y	[2d	.	.
=115	=115	=115	=115
1c	2d]	2r	2r
.	2c	2e	2a
1r	1B-y	2e	2a
.	.	2d	2g
=116	=116	=116	=116
2r	1A	2e	2a
2c	.	2e	2a
2B-y	1r	2c	2f
[2d	.	[2f	[2b-y
=117	=117	=117	=117
2d]	0r	2f]	2b-]
2c	.	2e	2a
1B-y	.	1d	1g
=118	=118	=118	=118
1A	0r	1c	0f
[1D	.	2r	.
.	.	[2a	.
=119	=119	=119	=119
1D]	1r	2a]	0r
.	.	2a	.
1r	2r	1b-y	.
.	[2d	.	.
=120	=120	=120	=120
1r	2d]	1a	0r
.	2c	.	.
2r	1B-y	2f	.
[2d	.	2g	.
=121	=121	=121	=121
2d]	1A	1a	0r
2c	.	.	.
1B-y	1r	2d	.
.	.	[2f	.
=122	=122	=122	=122
1A	0r	2f]	2r
.	.	2e	1a
1r	.	2.d	.
.	.	.	2a
.	.	4c	.
=123	=123	=123	=123
0r	2r	4d	1b-y
.	.	4e	.
.	1d	1f	.
.	.	.	1a
.	2c	2e	.
=124	=124	=124	=124
2r	1B-y	2d	2f
1G	.	4c	2g
.	.	4B-y	.
.	1A	2c	1a
2F	.	[2d	.
=125	=125	=125	=125
1G	2r	2d]	1d
.	1d	4c	.
.	.	4B-y	.
1D	.	2A	1r
.	2d	2B-y	.
=126	=126	=126	=126
2r	1e	1G	0r
1G	.	.	.
.	1d	2r	.
2G	.	[2g	.
=127	=127	=127	=127
1A	2r	2g]	0r
.	1c	2f	.
1G	.	[1g	.
.	2B-y	.	.
=128	=128	=128	=128
2E	2c	2g]	2r
2F	1d	4f	1dd
.	.	4e	.
1G	.	1d	.
.	2G	.	2dd
=129	=129	=129	=129
1C	2r	2c	1ee-i
.	1c	2g	.
1r	.	2g	1dd
.	2d	2f	.
=130	=130	=130	=130
0r	1e-i	1g	2b-y
.	.	.	2cc
.	1d	2a	1dd
.	.	[2b-y	.
=131	=131	=131	=131
1r	2.B-y	4b-]	2g
.	.	4a	.
.	.	1g	2b-y
.	4c	.	.
2r	1d	.	1a
2D	.	2f#i	.
=132	=132	=132	=132
1E	2G	1g	1g
.	2.c	.	.
[1F	.	2r	2.cc
.	4B-y	.	.
.	4A	2c	.
.	4G	.	4b-y
=133	=133	=133	=133
2F]	2A	1f	4a
.	.	.	4g
4E	1d	.	1b-y
4D	.	.	.
2E	.	1e	.
2F	2c	.	[2a
=134	=134	=134	=134
2G	2B-y	2.d	4a]
.	.	.	4g
4F	4A	.	1g
4E	4G	4c	.
1D	1A	4d	.
.	.	4e	.
.	.	[2f	2f#i
=135	=135	=135	=135
0G	2G	2f]	0g
.	2c	2e	.
.	2c	2.d	.
.	2B-y	.	.
.	.	8cL	.
.	.	8B-yJ	.
=136	=136	=136	=136
2r	2c	4A	0r
.	.	4G	.
2G	2d	2B-y	.
2G	2e	1A	.
2F	2f	.	.
=137	=137	=137	=137
2G	2d	0r	0r
2A	1f	.	.
2.B-y	.	.	.
.	4e	.	.
4A	4d	.	.
=138	=138	=138	=138
2G	4e	0r	1r
.	4d	.	.
4F	2.f	.	.
4E	.	.	.
2D	.	.	2r
.	4e	.	.
2E	4d	.	2cc
.	4c	.	.
=139	=139	=139	=139
2F	1d	1r	2cc
2G	.	.	2b-y
1C	2.c	2r	2.cc
.	.	2g	.
.	4B-y	.	4dd
=140	=140	=140	=140
0r	2c	2g	2ee
.	2d	2f	2ff
.	2G	2g	2dd
.	[2d	2a	[2ff
=141	=141	=141	=141
0r	2d]	2.b-y	2ff]
.	4c	.	4ee
.	4B-y	4a	4dd
.	2c	2g	4ee
.	.	.	4dd
.	[2d	4f	[2ff
.	.	4e	.
=142	=142	=142	=142
0r	4d]	2d	4ff]
.	4c	.	4ee
.	4B-y	2.b-y	4dd
.	4A	.	4cc
.	1G	.	[1dd
.	.	4a	.
.	.	4g	.
.	.	4f	.
=143	=143	=143	=143
1r	2r	1g	2dd]
.	2G	.	4cc
.	.	.	4b-y
2r	2A	1f	2cc
2D	2B-y	.	2dd
=144	=144	=144	=144
2E	2c	0r	1g
2F	2.d	.	.
2.G	.	.	1r
.	4c	.	.
.	2e	.	.
4E	.	.	.
=145	=145	=145	=145
4F	4d	1r	0r
4E	4c	.	.
4D	1c	.	.
4C	.	.	.
1D	.	2r	.
.	2BnXi	2d	.
=146	=146	=146	=146
2C	1c	2e	2r
1c	.	2e	2g
.	2r	2.f	2a
2B-y	2d	.	2b-y
.	.	4g	.
=147	=147	=147	=147
2A	2e	1a	2cc
1d	2f	.	2.dd
.	2.g	2d	.
.	.	.	4b-y
2c	.	[2g	2ee-i
.	4e	.	.
=148	=148	=148	=148
2B-y	4f	2g]	4dd
.	4e	.	4cc
2A	4d	2f	1cc
.	4c	.	.
1G	1d	1g	.
.	.	.	2bnXi
=149	=149	=149	=149
0Cl	0cl	0gl	0ccl
==	==	==	==
*-	*-	*-	*-
!!!system-decoration: s1,s2,s3,s4
!!!RDF**kern: i = editorial accidental
!!!RDF**kern: l = terminal long
!!!ENC: Benjamin Ory and Irene Holzer
!!!END: 2026/2/26
!!!EED: Benjamin Ory
!!!EEV: 2026/02/26
!!!YEC: Copyright 2026 Benjamin Ory, All Rights Reserved
!!!ONB: Translated from MusicXML on 2026/02/26